X:077
T: Ailen Aroon with variations
T: Eileen Aroon
N: O'Farrell's Pocket Companion v.1 (Sky ed. p.21-22)
N: "Irish" - Eibhlin A Run
M: 3/4
L: 1/8
R: waltz
Q: 80 %"slow"
K: D
A2B2c2| d3ef2| A2B2{d}c2|d6|A2 BABd |e2 e3f|
A2B2c2| d4 f2| gfgaga|g2B2B2 |fefafe|
d2 BA A2|gfga g2|fefg f2|efgabg|e2 dcBA|
a4 b/c'/d'|bagfed|d3e f2|A2B2c2|{c}d6 ||
P:2
F<A G<B A<c|defg a2|A>F B>G c>A|dc/B/ A/G/F/E/ D2|
AFGABc|d/e/d/e/ fg a2|A2B2c2|d4 f2|gfga g/a/g/a/|
gabgfe | fefg f/g/f/g/|fgafed| g/f/e g/a/b g/f/e |
f/e/d f/g/a f/e/d |ee/f/ g/g/a bg|{f}e2 dcBA|a4 b/c'/d'|
b/a/g a/g/f e/d/c|d3ef2|F<A G<B c<A|d6||
P:3
AFGABc|d2 efga|A2B2{d}c2|dc/B/ A/G/F/E/ D2|AF G/F/G/A/ B/A/B/c/|
d/c/d/e/ f/e/f/g/ a2| A2B2{d}c2|d4 f2|gbgedB| E2 b2 g2|
f/a/g/f/ e/d/c/B/ A/G/F/E/|D2 a2 f2|gEG bgE|fDF afD|EFg abg|
e2 dcBA|d4 b/c'/d'|bGFaec|d3e f2|A2B2{d}c2|d6||
P:4
AFGBAc|eAfd a2|A2B2{d}c2|dc/B/ A/G/F/E/ D2|
AF/G/ BGcA|(3ded (3fgf a2|(3ABA B2 c2|d4 f2|
g/a/b/a/ g4| gdBG E2|f/g/a/g/ f4|fdAF D>g|
b/a/g/a/ g4| a/g/f/g/ f4|e/f/e/f/ g/f/g/a/ b/g/f/g/|
e2 dcBA| a4 b/c'/d'|b/a/g afec|{c}d2 e2 f2|A2B2{d}c2|d6||
